remix/System/filter-off-line.svg

<svg viewBox="0 0 24 24" fill="currentColor" xmlns="http://www.w3.org/2000/svg"><path d="M6.92893 0.514648L21.0711 14.6568L19.6569 16.071L15.834 12.2486L15 13.4999V21.9999H9V13.4999L4 5.99993H3V3.99993L7.585 3.99965L5.51472 1.92886L6.92893 0.514648ZM9.585 5.99965L6.4037 5.99993L11 12.8944V19.9999H13V12.8944L14.392 10.8066L9.585 5.99965ZM21 3.99993V5.99993H20L18.085 8.87193L16.643 7.42893L17.5963 5.99993H15.213L13.213 3.99993H21Z"/></svg>

<svg viewBox="0 0 24 24" xmlns="http://www.w3.org/2000/svg"><path fill="none" d="M0 0h24v24H0Z"/><path d="M6.929.51L21.07 14.652l-1.42 1.41 -3.83-3.83 -.84 1.25v8.5h-6v-8.5l-5-7.5h-1v-2H7.56L5.49 1.9 6.9.48Zm2.65 5.485H6.38l4.596 6.89v7.106h2v-7.106l1.39-2.09 -4.81-4.81Zm11.415-2v2h-1l-1.92 2.87 -1.45-1.45 .95-1.43h-2.39l-2-2h7.78Z"/></svg>
